X:1
T:The Squirrel Hunters
C:from Samuel Bayard
C:through John Hartford
C:and Katrina Nicolayeff
L:1/8
M:4/4
I:linebreak $
K:G
"A"e3 d BABd | efed BdBA |"G" GABc dAdc | dAcA Bcd^d |$
"A"efed BABd | efed BdBA |"G" GABc dAcB |1 "D"AFEF D4 :|2 "D"A4 [AA]4 |:$
"A"edeg abag | edef gedB |"G" GABc dAdc | dAcA Bcd^d |$
"A"edeg abag | edef gedB |"G" GABc dAcB |1 "D"AFEF D4 :|2 "D"[AA]8 |]
